data/styles/clear/style-clear/symbols/mail-m.svg

<svg height="24" viewBox="0 0 24 24" width="24"><g fill="none" fill-rule="evenodd"><circle cx="12" cy="12" fill="#fff" opacity=".6" r="12"/><circle cx="12" cy="12" fill="#717065" r="11"/><path d="m17.9943635 8.89181151-5.9943635 3.10818849-5.99440095-3.1082079c.05361923-.50117544.48545252-.8917921.99687424-.8917921h9.99505341c.517527 0 .943459.39584699.9968368.89181151zm.0056365 1.10818849v5.0029699c0 .5506445-.455761.9970301-1.0024733.9970301h-9.99505341c-.55365071 0-1.00247329-.4530363-1.00247329-.9970301v-5.0029699l6 3.1111111z" fill="#fff"/></g></svg>

<svg width="24" height="24" viewBox="0 0 24 24">
  <g fill="none" fill-rule="evenodd">
    <circle cx="12" cy="12" r="12" fill="#FFF" opacity=".6"/>
    <circle cx="12" cy="12" r="11" fill="#717065"/>
    <path fill="#FFF" d="M17.9943635,8.89181151 C17.9980893,8.92643012 18,8.96153652 18,8.99703014 L18,15.0029699 C18,15.5536144 17.544239,16 16.9975267,16 L7.00247329,16 C6.44882258,16 6,15.5469637 6,15.0029699 L6,8.99703014 C6,8.96148569 6.00189906,8.92637567 6.00559905,8.8917921 L6,8.88888889 L6,10 L12,13.1111111 L12,12 L6.00559905,8.8917921 C6.05921828,8.39061666 6.49105157,8 7.00247329,8 L16.9975267,8 C17.5150537,8 17.9409857,8.39584699 17.9943635,8.89181151 L18,8.88888889 L18,10 L12,13.1111111 L12,12 L17.9943635,8.89181151 Z"/>
  </g>
</svg>
